homework_5/images/star.svg

<svg width="126" height="126" viewBox="0 0 126 126" fill="none" xmlns="http://www.w3.org/2000/svg">
<g clip-path="url(#clip0)">
<path d="M60.0915 10.1428C61.1676 7.5557 64.8324 7.5557 65.9085 10.1428L78.9248 41.4379C79.3785 42.5285 80.4041 43.2737 81.5816 43.3681L115.367 46.0767C118.16 46.3006 119.293 49.7861 117.165 51.6089L91.4237 73.659C90.5266 74.4274 90.1348 75.6331 90.4089 76.7821L98.2732 109.751C98.9233 112.477 95.9584 114.631 93.5672 113.17L64.642 95.5029C63.6339 94.8872 62.3661 94.8872 61.358 95.5029L32.4328 113.17C30.0416 114.631 27.0767 112.477 27.7268 109.751L35.5911 76.7821C35.8652 75.6331 35.4734 74.4274 34.5763 73.659L8.8352 51.6089C6.70726 49.7861 7.83977 46.3006 10.6327 46.0767L44.4184 43.3681C45.5959 43.2737 46.6215 42.5285 47.0752 41.4379L60.0915 10.1428Z" fill="white" stroke="#F54572" stroke-width="7.82069"/>
</g>
<defs>
<clipPath id="clip0">
<rect width="126" height="126" fill="white"/>
</clipPath>
</defs>
</svg>

<?xml version="1.0" encoding="utf-8"?>
<!-- Generator: Adobe Illustrator 25.4.1, SVG Export Plug-In . SVG Version: 6.00 Build 0)  -->
<svg version="1.1" id="Layer_1" xmlns="http://www.w3.org/2000/svg" xmlns:xlink="http://www.w3.org/1999/xlink" x="0px" y="0px"
	 viewBox="0 0 126 126" style="enable-background:new 0 0 126 126;" xml:space="preserve">
<style type="text/css">
	.st0{fill:none;stroke:#F54572;stroke-width:7.8207;}
</style>
<g>
	<path class="st0" d="M60.1,10.1c1.1-2.6,4.7-2.6,5.8,0l13,31.3c0.5,1.1,1.5,1.8,2.7,1.9l33.8,2.7c2.8,0.2,3.9,3.7,1.8,5.5
		L91.4,73.7c-0.9,0.8-1.3,2-1,3.1l7.9,33c0.7,2.7-2.3,4.9-4.7,3.4L64.6,95.5c-1-0.6-2.3-0.6-3.3,0l-28.9,17.7
		c-2.4,1.5-5.4-0.7-4.7-3.4l7.9-33c0.3-1.1-0.1-2.4-1-3.1L8.8,51.6c-2.1-1.8-1-5.3,1.8-5.5l33.8-2.7c1.2-0.1,2.2-0.8,2.7-1.9
		L60.1,10.1z"/>
</g>
</svg>
